symbolic/24x24/apps/gladish.svg

<svg xmlns="http://www.w3.org/2000/svg" width="24" height="24" version="1">
 <path style="opacity:0.2" d="m 12,11.5 c -5.54,0 -10,2.453 -10,5.5 0,3.047 4.46,5.5 10,5.5 5.54,0 10,-2.453 10,-5.5 0,-3.047 -4.46,-5.5 -10,-5.5 z"/>
 <path style="fill:#e4e4e4" d="M 12,11 C 6.46,11 2,13.453 2,16.5 2,19.547 6.46,22 12,22 17.54,22 22,19.547 22,16.5 22,13.453 17.54,11 12,11 Z"/>
 <path style="opacity:0.2;fill:#ffffff" d="M 12,11 C 6.46,11 2,13.453001 2,16.5 2,16.58376 2.00407,16.667176 2.010742,16.75 2.2467225,13.819886 6.612291,11.5 12,11.5 c 5.387709,0 9.753277,2.319886 9.989258,5.25 C 21.995928,16.667176 22,16.58376 22,16.5 22,13.453001 17.54,11 12,11 Z"/>
 <path style="opacity:0.1" d="m 12,12.5 c -3.878,0 -7,1.6725 -7,3.75 0,2.0775 3.122,3.75 7,3.75 3.878,0 7,-1.6725 7,-3.75 0,-2.0775 -3.122,-3.75 -7,-3.75 z"/>
 <path style="opacity:0.1" d="m 15.302927,2.5019759 c -0.220882,-0.012209 -0.486051,0.036156 -0.486051,0.036156 0,0 -0.816876,0.075528 -0.816876,0.9419987 V 14.870108 L 15.986891,16.5 V 6.9940205 c 1.07561,-0.04555 3.593195,0.896073 2.922716,4.4960315 C 22.304336,6.204769 16.746552,6.01102 16.108161,3.1469129 16.029229,2.7650134 15.76186,2.6477605 15.49696,2.5381315 15.444509,2.516425 15.376554,2.5060459 15.302927,2.5019759 Z"/>
 <path style="fill:#1b7b34" d="m 15.302927,2.0019759 c -0.220882,-0.01221 -0.486051,0.036156 -0.486051,0.036156 0,0 -0.816876,0.075528 -0.816876,0.9419987 V 14.370108 L 15.986891,16 V 6.4940205 c 1.07561,-0.04555 3.593195,0.896073 2.922716,4.4960315 C 22.304336,5.704769 16.746552,5.51102 16.108161,2.6469129 16.029229,2.2650134 15.76186,2.1477605 15.49696,2.0381315 15.444509,2.016425 15.376554,2.0060459 15.302927,2.0019759 Z"/>
 <ellipse style="opacity:0.1" cx="12.5" cy="16.5" rx="3.5" ry="2"/>
 <ellipse style="fill:#529c0a" cx="12.5" cy="16" rx="3.5" ry="2"/>
 <path style="opacity:0.1;fill:#ffffff" d="m 15.302735,2.0019531 c -0.220883,-0.01221 -0.486329,0.036133 -0.486329,0.036133 0,0 -0.816406,0.075912 -0.816406,0.9423828 v 0.5 c 0,-0.866471 0.816406,-0.9423828 0.816406,-0.9423828 0,0 0.265446,-0.048342 0.486329,-0.036133 0.07363,0.00407 0.141885,0.014426 0.194336,0.036133 0.2649,0.109629 0.532395,0.226499 0.611328,0.6083985 0.474274,2.1278069 3.66138,2.7836859 3.877929,5.1464844 C 20.207955,5.5119445 16.614474,4.9169643 16.108399,2.6464844 16.029466,2.2645849 15.761971,2.147715 15.497071,2.038086 15.44462,2.0163794 15.376362,2.0060231 15.302735,2.0019531 Z m 3.705077,8.0937499 c -0.01234,0.280146 -0.03879,0.57322 -0.09863,0.894532 0.0325,-0.05061 0.05897,-0.09778 0.08984,-0.147461 0.0236,-0.267916 0.02148,-0.512464 0.0088,-0.747071 z"/>
</svg>

<svg xmlns="http://www.w3.org/2000/svg" width="24" height="24" version="1"><path style="opacity:.2" d="M12 11.5c-5.54 0-10 2.453-10 5.5s4.46 5.5 10 5.5 10-2.453 10-5.5-4.46-5.5-10-5.5z"/><path style="fill:#e4e4e4" d="M12 11c-5.54 0-10 2.453-10 5.5S6.46 22 12 22s10-2.453 10-5.5S17.54 11 12 11z"/><path style="opacity:.2;fill:#fff" d="M12 11c-5.54 0-10 2.453-10 5.5 0 .084.004.167.01.25.237-2.93 4.602-5.25 9.99-5.25s9.753 2.32 9.99 5.25c.006-.083.01-.166.01-.25 0-3.047-4.46-5.5-10-5.5z"/><path style="opacity:.1" d="M12 12.5c-3.878 0-7 1.673-7 3.75C5 18.328 8.122 20 12 20s7-1.673 7-3.75c0-2.078-3.122-3.75-7-3.75z"/><path style="opacity:.1" d="M15.303 2.502c-.221-.012-.486.036-.486.036S14 2.614 14 3.48v11.39l1.987 1.63V6.994c1.076-.046 3.593.896 2.923 4.496 3.394-5.285-2.163-5.479-2.802-8.343-.079-.382-.346-.5-.611-.609a.613.613 0 0 0-.194-.036z"/><path style="fill:#1b7b34" d="M15.303 2.002c-.221-.012-.486.036-.486.036S14 2.114 14 2.98v11.39L15.987 16V6.494c1.076-.046 3.593.896 2.923 4.496 3.394-5.285-2.163-5.479-2.802-8.343-.079-.382-.346-.5-.611-.609a.613.613 0 0 0-.194-.036z"/><ellipse style="opacity:.1" cx="12.5" cy="16.5" rx="3.5" ry="2"/><ellipse style="fill:#529c0a" cx="12.5" cy="16" rx="3.5" ry="2"/><path style="opacity:.1;fill:#fff" d="M15.303 2.002c-.221-.012-.487.036-.487.036S14 2.114 14 2.98v.5c0-.866.816-.942.816-.942s.266-.048.487-.036a.615.615 0 0 1 .194.036c.265.11.532.227.611.608.475 2.128 3.662 2.784 3.878 5.147.222-2.781-3.372-3.376-3.878-5.647-.079-.381-.346-.498-.61-.608a.615.615 0 0 0-.195-.036zm3.705 8.094a6.32 6.32 0 0 1-.099.894c.033-.05.06-.098.09-.147.024-.268.022-.513.009-.747z"/></svg>
